icons/src/scalable/default/devices/media-optical-recordable-symbolic.svg

<?xml version="1.0" encoding="UTF-8" standalone="no"?>
<svg
   xmlns:dc="http://purl.org/dc/elements/1.1/"
   xmlns:cc="http://creativecommons.org/ns#"
   xmlns:rdf="http://www.w3.org/1999/02/22-rdf-syntax-ns#"
   xmlns:svg="http://www.w3.org/2000/svg"
   xmlns="http://www.w3.org/2000/svg"
   xmlns:sodipodi="http://sodipodi.sourceforge.net/DTD/sodipodi-0.dtd"
   xmlns:inkscape="http://www.inkscape.org/namespaces/inkscape"
   viewBox="0 0 16 16"
   id="svg3197"
   version="1.1"
   inkscape:version="0.91 r13725"
   sodipodi:docname="media-optical-recordable-symbolic.svg">
  <metadata
     id="metadata3205">
    <rdf:RDF>
      <cc:Work
         rdf:about="">
        <dc:format>image/svg+xml</dc:format>
        <dc:type
           rdf:resource="http://purl.org/dc/dcmitype/StillImage" />
      </cc:Work>
    </rdf:RDF>
  </metadata>
  <defs
     id="defs3203" />
  <sodipodi:namedview
     pagecolor="#ffffff"
     bordercolor="#666666"
     borderopacity="1"
     objecttolerance="10"
     gridtolerance="10"
     guidetolerance="10"
     inkscape:pageopacity="0"
     inkscape:pageshadow="2"
     inkscape:window-width="640"
     inkscape:window-height="480"
     id="namedview3201"
     showgrid="false"
     inkscape:zoom="41.1875"
     inkscape:cx="3.6783005"
     inkscape:cy="8"
     inkscape:current-layer="svg3197" />
  <path
     style="fill:#bebebe;fill-opacity:1;stroke:none"
     d="M 8 0.5 C 3.845 0.5 0.5 3.845 0.5 8 C 0.5 12.155 3.845 15.5 8 15.5 C 12.155 15.5 15.5 12.155 15.5 8 C 15.5 3.845 12.155 0.5 8 0.5 z M 8 7.0625 C 8.5193741 7.0625 8.9375 7.4806259 8.9375 8 C 8.9375 8.5193741 8.5193741 8.9375 8 8.9375 C 7.4806259 8.9375 7.0625 8.5193741 7.0625 8 C 7.0625 7.4806259 7.4806259 7.0625 8 7.0625 z "
     id="path3199" />
</svg>

<svg version="1.1" viewBox="0 0 16 16" xmlns="http://www.w3.org/2000/svg">
 <path d="m8 0.5c-4.155 0-7.5 3.345-7.5 7.5s3.345 7.5 7.5 7.5 7.5-3.345 7.5-7.5-3.345-7.5-7.5-7.5zm0 6.5625c0.51937 0 0.9375 0.41813 0.9375 0.9375s-0.41813 0.9375-0.9375 0.9375-0.9375-0.41813-0.9375-0.9375 0.41813-0.9375 0.9375-0.9375z" fill="#bebebe"/>
</svg>
